icons/folder-less-open.svg

<svg xmlns="http://www.w3.org/2000/svg" viewBox="0 0 32 32"><path fill="#0277bd" d="M28.967 12H9.442a2 2 0 0 0-1.898 1.368L4 24V10h24a2 2 0 0 0-2-2H15.124a2 2 0 0 1-1.28-.464l-1.288-1.072A2 2 0 0 0 11.276 6H4a2 2 0 0 0-2 2v16a2 2 0 0 0 2 2h22l4.805-11.212A2 2 0 0 0 28.967 12Z"/><path fill="#b3e5fc" fill-rule="evenodd" d="M20 21a1 1 0 0 0-1-1 1 1 0 0 0 1-1v-5h2v-2h-2a2 2 0 0 0-2 2v4a1 1 0 0 1-1 1h-1v2h1a1 1 0 0 1 1 1v4a2 2 0 0 0 2 2h2v-2h-2Zm11-2a1 1 0 0 1-1-1v-4a2 2 0 0 0-2-2h-2v2h2v5a1 1 0 0 0 1 1 1 1 0 0 0-1 1v5h-2v2h2a2 2 0 0 0 2-2v-4a1 1 0 0 1 1-1h1v-2Z"/></svg>

<svg xmlns="http://www.w3.org/2000/svg" viewBox="0 0 32 32">
  <path d="M28.96692,12H9.44152a2,2,0,0,0-1.89737,1.36754L4,24V10H28a2,2,0,0,0-2-2H15.1241a2,2,0,0,1-1.28038-.46357L12.5563,6.46357A2,2,0,0,0,11.27592,6H4A2,2,0,0,0,2,8V24a2,2,0,0,0,2,2H26l4.80523-11.21213A2,2,0,0,0,28.96692,12Z" style="fill: #0277bd"/>
  <g>
    <path d="M20,21a1,1,0,0,0-1-1,1,1,0,0,0,1-1V14h2V12H20a2,2,0,0,0-2,2v4a1,1,0,0,1-1,1H16v2h1a1,1,0,0,1,1,1v4a2,2,0,0,0,2,2h2V26H20Z" style="fill: #b3e5fc;fill-rule: evenodd"/>
    <path d="M31,19a1,1,0,0,1-1-1V14a2,2,0,0,0-2-2H26v2h2v5a1,1,0,0,0,1,1,1,1,0,0,0-1,1v5H26v2h2a2,2,0,0,0,2-2V22a1,1,0,0,1,1-1h1V19Z" style="fill: #b3e5fc;fill-rule: evenodd"/>
  </g>
</svg>
